X: 71
T: Blew Bell
M:3/2
L:1/8
S: 8: MCJLSH3 http://www.cpartington.plus.com/links/Walsh.abc
Z: Pete Stewart 2004
B: Walsh "Third Book of the most Celebrated jiggs, Lancashire hornpipes, ..."
K:CMin
E4GABDE4 | cBAG FGAED2F2 | BAGF EFEDC2F2 | AGFE B,EDFE4 ||
e4gbge cecA | F4fgfe dcde | D2E2c3B AGFE | AGFE B,EDFE4 ||
EFGAB2E2D2E2 | FGA=B c2F2=E2F2 | g3f edcB AGFE | AGFE B,EDFE4 ||

%%sep 1 1 500
%%sep 1 1 500
